X:78
T: Adam hatte sieben Shn, S. 48
N: L0038
O: Luxemburg
S: Die Luxemburger Volkslieder lterer Zeit, Luxemburg 1904 posth.]
N: Ursprungsmelodie der Echternacher
N: Springprozession
R: ??]
M: 2/4
L: 1/16
K: D
 | D3EF2G2 | A2A2A2z2 |
B3cd2B2 | B2A2A2z2 |
G2E2F2D2 | E2C2D2z2 |
G2EGF2DF | E2C2D2z2

@@@ Tune index: 8132
